icons/binariesother.svg

<svg xmlns="http://www.w3.org/2000/svg" viewBox="0 0 16 16"><path fill="#7c95a1" d="M6 12h1v1H4v-1h1v-2H4V9h2zm8-7.5V14a1 1 0 0 1-1 1H3a1 1 0 0 1-1-1V2a1 1 0 0 1 1-1h7.5ZM13 5l-3-3H3v12h10zm-3-1H8v1h1v2H8v1h3V7h-1zM4 4h3v4H4zm1 3h1V5H5zm3 2h3v4H8zm1 3h1v-2H9z" data-iconColor="Binaries (Other)"/></svg>

<!--
  - The MIT License (MIT)
  -
  - Copyright (c) 2015-2024 Elior "Mallowigi" Boukhobza
  -
  - Permission is hereby granted, free of charge, to any person obtaining a copy
  - of this software and associated documentation files (the "Software"), to deal
  - in the Software without restriction, including without limitation the rights
  - to use, copy, modify, merge, publish, distribute, sublicense, and/or sell
  - copies of the Software, and to permit persons to whom the Software is
  - furnished to do so, subject to the following conditions:
  -
  - The above copyright notice and this permission notice shall be included in all
  - copies or substantial portions of the Software.
  -
  - THE SOFTWARE IS PROVIDED "AS IS", WITHOUT WARRANTY OF ANY KIND, EXPRESS OR
  - IMPLIED, INCLUDING BUT NOT LIMITED TO THE WARRANTIES OF MERCHANTABILITY,
  - FITNESS FOR A PARTICULAR PURPOSE AND NONINFRINGEMENT. IN NO EVENT SHALL THE
  - AUTHORS OR COPYRIGHT HOLDERS BE LIABLE FOR ANY CLAIM, DAMAGES OR OTHER
  - LIABILITY, WHETHER IN AN ACTION OF CONTRACT, TORT OR OTHERWISE, ARISING FROM,
  - OUT OF OR IN CONNECTION WITH THE SOFTWARE OR THE USE OR OTHER DEALINGS IN THE
  - SOFTWARE.
  -
  -->

<svg  xmlns="http://www.w3.org/2000/svg" width="16px" height="16px" viewBox="0 0 16 16">
  <path fill="#7C95A1" data-iconColor="Binaries (Other)"
        d="M6,12H7v1H4V12H5V10H4V9H6v3Zm8-7.5V14a1,1,0,0,1-1,1H3a1,1,0,0,1-1-1V2A1,1,0,0,1,3,1h7.5ZM13,5L10,2H3V14H13V5ZM10,4H8V5H9V7H8V8h3V7H10V4ZM4,4H7V8H4V4ZM5,7H6V5H5V7ZM8,9h3v4H8V9Zm1,3h1V10H9v2Z"
  />
</svg>
